X:1
T:Graziosa
T:Graziosa
T:Romance sans paroles
T:Sigismund Thalberg
C:Sigismund Thalberg
%%score { ( 1 3 ) | 2 }
L:1/8
Q:1/4=64
M:4/4
K:Gb
V:1 treble nm="Piano" snm="Pno."
V:3 treble 
V:2 bass 
V:1
"^Andantino"!p! z2 (B2{/d} c2 B2) |!<(! (e2 f>g!<)!!mp!!>(! g2 f2)!>)! |!p! (e2 B2{/d} c2 B2) | %3
 (e2 d>c B2 A2) | (G2 B2{/d} c2 B2) |!<(! (e2 f>g!<)!!mp!!>(! g2 f2)!>)! | %6
!p!!>(! (e2 B2{/d} c2 B2)!>)! |!pp! (e2 d>c B2 A2) | B z ([Bd]2 [Bg]2 [Bd]2 | e2 e4 d>c) | %10
 B z ([Bd]2 [Bg]2 [Bd]2 | e2 e4 f>e) | =d!p! z/ z/"_cresc." (f4 f2- | f2 a4 a2- | %14
!f![Q:1/4=32] a2) z2 z!pp![Q:1/4=44] f2 e- | e =d2 e2 d2 e- | e =e2[Q:1/4=24] f z z B2- | %17
!p![Q:1/4=64] B2 (B2{/d} c2 B2) |!<(! (e2 f>g!<)!!mp!!>(! g2 f2)!>)! |!p! (e2 B2{/d} c2 B2) | %20
 (e2 d>c B2 A2) | (G2 B2{/d} c2 B2) | e"_cresc." z (e2{/g} f2 e2) |!f! !>!e' z (e4 f2) | %24
"_dim." (g2 f>e f3 B) |!mp! e2 z2 z2 e2- | e z e2- (e=def) | %27
 B z!f![Q:1/4=64] e4[Q:1/4=54]"^.3" e2-[Q:1/4=61]"^.6"[Q:1/4=59]"^.1"[Q:1/4=56]"^.7"[Q:1/4=51]"^.9" | %28
[Q:1/4=49]"^.4" e[Q:1/4=47] z[Q:1/4=44]"^.6" e2-[Q:1/4=39]"^.7" (e[Q:1/4=37]"^.3"=d[Q:1/4=34]"^.9"f[Q:1/4=30]!fermata!B)[Q:1/4=42]"^.1" || %29
[K:Eb]!p![Q:1/4=64] z2 (B2{/d} c2 B2) |!<(! (e2 f>g!<)!!mp!!>(! g2 f2)!>)! |!p! (e2 B2 e2 d2 | %32
 c2) (gf) (Pedcd) | (e2 B2{/d} c2 B2) | (e2 f>g g2 f2) | =e z!f! [_d_d']4 [dd']2- | %36
 ([dd']2 ([cc']>)!>(![Bb] [Bb][Aa][Ff][Gg])!>)! | [Ee]2!p! z2 z2 e2- | e z e2- (edef) | %39
 B2 z2 z2!<(! e2-!<)! |!mf! e2!>(! e2-!>)!!p! (edfB) |!f! g8- | %42
"_dim." g4-[Q:1/4=52]"^.7" g2-[Q:1/4=41]"^.3" g>[Q:1/4=32]"^.8"f[Q:1/4=64][Q:1/4=58]"^.3"[Q:1/4=47][Q:1/4=35]"^.7" | %43
[Q:1/4=20] (f4 e) z!p![Q:1/4=5] !arpeggio![Geb] z |!pp! !fermata![Bge']4 !fermata!z4 |] %45
V:2
!ped! E,,[G,B,E][G,B,E]E,,!ped-up!!ped! E,,[G,B,E][G,B,E]E,,!ped-up! | %1
!ped! B,,,[G,B,E][G,B,E]B,,,!ped-up!!ped! B,,,[A,B,=D][A,B,D]B,,,!ped-up! | %2
!ped! E,,[G,B,E][G,B,E]E,,!ped-up!!ped! E,,[=G,DE][G,DE]E,,!ped-up! | %3
!ped! A,,,[E,A,CE][E,A,CE]A,,,!ped-up!!ped! B,,,[F,B,=D][F,B,D]B,,,!ped-up! | %4
!ped! E,,[G,B,E][G,B,E]E,,!ped-up!!ped! E,,[G,B,E][G,B,E]E,,!ped-up! | %5
!ped! B,,,[G,B,E][G,B,E]B,,,!ped-up!!ped! B,,,[A,B,=D][A,B,D]B,,,!ped-up! | %6
!ped! E,,[G,B,E][G,B,E]E,,!ped-up!!ped! E,,[=G,DE][G,DE]E,,!ped-up! | %7
!ped! A,,,[E,A,CE][E,A,CE]A,,,!ped-up!!ped! D,,[CDF][CDF]D,,!ped-up! | %8
!ped! [G,,,G,,][D,G,B,D][D,G,B,D]G,,!ped-up!!ped! G,,[D,G,B,D][D,G,B,D]G,,!ped-up! | %9
!ped! [C,,C,][G,A,CE][G,A,CE]C,,!ped-up!!ped! D,,[CDF][CDF]D,,!ped-up! | %10
!ped! G,,[D,G,B,D][D,G,B,D]G,,!ped-up!!ped! G,,[D,G,B,D][D,G,B,D]G,,!ped-up! | %11
!ped! [C,,C,][G,A,CE][G,A,CE]C,,!ped-up!!ped! C,,[F,=A,E][F,A,E]C,,!ped-up! | %12
!ped! !>!B,,,[F,B,=D][F,B,D]!>!B,,,!ped-up!!ped! !>!=B,,,[F,A,D][F,A,D]!>!B,,,!ped-up! | %13
!ped! !>!=C,,[A,=CF][A,CF]!>!C,,!ped-up!!ped! !>!D,,[A,_CF][A,CF]!>!D,,!ped-up! | %14
!ped! !>!=D,, z !fermata![=D,A,CF]!ped-up! z z2[K:treble] [Ac]2 | [FA]2 [Ac]2 [FA]2 [EA-c-]2 | %16
 ([=D-A-c]4 [DAB]) z z2 | %17
[K:bass]!ped! E,,[G,B,E][G,B,E]E,,!ped-up!!ped! E,,[G,B,E][G,B,E]E,,!ped-up! | %18
!ped! B,,,[G,B,E][G,B,E]B,,,!ped-up!!ped! B,,,[A,B,=D][A,B,D]B,,,!ped-up! | %19
!ped! E,,[G,B,E][G,B,E]E,,!ped-up!!ped! E,,[=G,DE][G,DE]E,,!ped-up! | %20
!ped! A,,[E,A,CE][E,A,CE]A,,!ped-up!!ped! B,,[A,B,=D][A,B,D]B,,!ped-up! | %21
!ped! E,,[G,B,E][G,B,E]!>!E,,!ped-up!!ped! !>!D,,[=G,B,E][G,B,E]!>!D,,!ped-up! | %22
!ped! !>![=C,,=C,][K:treble][=CEA][CEA][K:bass]!>![C,,C,]!ped-up!!ped! !>![_C,,_C,][K:treble][_CE=A][CEA][K:bass]!>![C,,C,]!ped-up! | %23
!ped! !>![B,,,B,,][B,EG][B,EG]!>![B,,,B,,]!ped-up!!ped! !>![A,,,A,,][A,CE][A,CE]!>![A,,,A,,]!ped-up! | %24
!ped! [B,,,B,,][B,EG][B,EG][B,,,B,,]!ped-up!!ped! [B,,,B,,][A,B,=D][A,B,D][B,,,B,,]!ped-up! | %25
!ped! [E,,,E,,] z[K:treble]!<(! [B,EG][B,EG] [CEA][CEA][B,EG][B,EG]!ped-up! | %26
[K:bass]!ped! [A,CF]!<)!!f![A,CF]!>(![G,B,E][G,B,E] [F,A,C]!>)![F,A,C]!mf![B,,=D,A,B,][B,,D,A,B,]!ped-up! | %27
!ped! [E,,,E,,] z[K:treble] [B,EG][B,EG] [CEA][CEA][B,EG][B,EG]!ped-up! | %28
[K:bass]!ped! [A,CF][A,CF][G,B,E][G,B,E] [F,A,C][F,A,C] !fermata![B,,=D,A,B,]2!ped-up! || %29
[K:Eb]!ped! E,,[G,B,E][G,B,E]E,,!ped-up!!ped! E,,[G,B,E][G,B,E]E,,!ped-up! | %30
!ped! B,,,[G,B,E][G,B,E]B,,,!ped-up!!ped! B,,,[A,B,D][A,B,D]B,,,!ped-up! | %31
!ped! E,,[G,B,E][G,B,E]E,,!ped-up!!ped! G,,[G,B,E][G,B,E]G,,!ped-up! | %32
!ped! A,,[A,CEF][A,CEF][A,,,A,,]!ped-up!!ped! [B,,,B,,][A,B,D][A,B,D][B,,,B,,]!ped-up! | %33
!ped! [E,,E,][G,B,][G,B,]!>![E,,E,]!ped-up!!ped! !>![D,,D,][F,B,][F,B,]!>![D,,D,]!ped-up! | %34
!ped! !>![C,,C,][G,CE][G,CE]!>![C,,C,]!ped-up!!ped! !>![=B,,,=B,,][=B,D][B,D]!>![B,,,B,,]!ped-up! | %35
!ped! !>![B,,,B,,][G,B,_D=E][G,B,DE]!>![B,,,B,,]!ped-up!!ped! !>![A,,,A,,][A,DF][A,DF]!>![A,,,A,,]!ped-up! | %36
!ped! !>![G,,,G,,][G,B,=E][G,B,E]!>![G,,,G,,]!ped-up!!ped! [A,,,A,,][A,CF]!ped-up!!ped![B,,,B,,][A,B,D]!ped-up! | %37
!ped! [E,,,E,,] z[K:treble] [B,EG][B,EG] [CEA][CEA][B,EG][B,EG]!ped-up! | %38
[K:bass]!ped! [A,CF][A,CF][G,B,E][G,B,E] [F,A,C][F,A,C][B,,D,A,B,][B,,D,A,B,]!ped-up! | %39
!ped! [E,,,E,,] z[K:treble] [B,EG][B,EG] [CEA][CEA][B,EG][B,EG]!ped-up! | %40
[K:bass]!ped! [A,CF][A,CF][G,B,E][G,B,E] [F,A,C][F,A,C][B,,D,A,B,][B,,D,A,B,]!ped-up! | %41
!ped! [E,,,E,,] z [B,EG][B,EG]!>(! [CEG][CEG][B,EG][B,EG]!ped-up!!>)! | %42
!ped! [G,CE][G,CE][G,B,E][G,B,E] [F,A,D][F,A,D][F,A,C][F,A,C]!ped-up! | z4 z2 [E,,,E,,] z | %44
!ped! [E,B,G]4 z4!ped-up! |] %45
V:3
 x8 | x8 | x8 | x8 | x8 | x8 | x8 | x8 | x8 | c2 A>G F4 | z8 | c2 A>G F4 | x8 | x8 | x8 | x8 | x8 | %17
 x8 | x8 | x8 | x8 | x8 | x8 | x8 | x8 | x8 | x8 | x8 | x8 ||[K:Eb] x8 | x8 | x8 | x8 | %33
 z [EG] z [EG] z [DF] z [DF] | z [Gc] z"_cresc." [Gc] z [Gd] z [Gd] | z [Gc] x6 | x8 | x8 | x8 | %39
 x8 | x8 | x8 | x8 | x8 | x8 |] %45

